source/img/icons/icon-youtube.svg

<svg width="24" height="24" viewBox="0 0 24 24" fill="none" xmlns="http://www.w3.org/2000/svg">
<path d="M23 9.70998C23.0494 8.27864 22.7364 6.858 22.09 5.57998C21.6514 5.05558 21.0427 4.70169 20.37 4.57998C17.5875 4.32751 14.7935 4.22403 12 4.26998C9.21664 4.22194 6.4327 4.32208 3.66 4.56998C3.11182 4.6697 2.60451 4.92683 2.2 5.30998C1.3 6.13998 1.2 7.55998 1.1 8.75998C0.954908 10.9175 0.954908 13.0824 1.1 15.24C1.12893 15.9154 1.22949 16.5858 1.4 17.24C1.52057 17.745 1.76452 18.2123 2.11 18.6C2.51726 19.0034 3.03638 19.2752 3.6 19.38C5.75591 19.6461 7.92821 19.7564 10.1 19.71C13.6 19.76 16.67 19.71 20.3 19.43C20.8775 19.3316 21.4112 19.0595 21.83 18.65C22.11 18.3699 22.3191 18.0271 22.44 17.65C22.7976 16.5526 22.9733 15.4041 22.96 14.25C23 13.69 23 10.31 23 9.70998ZM9.74 14.85V8.65998L15.66 11.77C14 12.69 11.81 13.73 9.74 14.85Z" fill="white"/>
</svg>

<svg width="24" height="24" fill="none" xmlns="http://www.w3.org/2000/svg"><path d="M23 9.71a8.5 8.5 0 00-.91-4.13 2.92 2.92 0 00-1.72-1A78.363 78.363 0 0012 4.27a78.45 78.45 0 00-8.34.3 2.87 2.87 0 00-1.46.74c-.9.83-1 2.25-1.1 3.45a48.289 48.289 0 000 6.48 9.55 9.55 0 00.3 2c.12.505.365.972.71 1.36a2.86 2.86 0 001.49.78c2.156.266 4.328.376 6.5.33 3.5.05 6.57 0 10.2-.28a2.88 2.88 0 001.53-.78c.28-.28.49-.623.61-1a10.58 10.58 0 00.52-3.4c.04-.56.04-3.94.04-4.54zM9.74 14.85V8.66l5.92 3.11c-1.66.92-3.85 1.96-5.92 3.08z" fill="#fff"/></svg>
